blockchains/ethereum/assets/0xaaAEBE6Fe48E54f431b0C390CfaF0b017d09D42d/logo.svg

<svg fill="none" height="250" viewBox="0 0 250 250" width="250" xmlns="http://www.w3.org/2000/svg" xmlns:xlink="http://www.w3.org/1999/xlink"><clipPath id="a"><path d="m0 0h250v250h-250z"/></clipPath><g clip-path="url(#a)"><path d="m125 250c69.036 0 125-55.964 125-125 0-69.0356-55.964-125-125-125-69.0356 0-125 55.9644-125 125 0 69.036 55.9644 125 125 125z" fill="#4054a8"/><path clip-rule="evenodd" d="m193.413 95.15c0 2.75-2.225 4.975-4.975 4.975s-4.975-2.225-4.975-4.975 2.225-4.975 4.975-4.975 4.962 2.225 4.975 4.975zm-4.663-10.575c-6.012 0-10.887 4.8625-10.887 10.875 0 6.012 4.862 10.887 10.875 10.887 6.012 0 10.887-4.862 10.887-10.8745v-.0125c-.012-5.9875-4.875-10.8625-10.875-10.875zm-14.012 95.35c2.337-2.138 2.5-5.775.362-8.113-2.125-2.325-5.725-2.499-8.075-.399-11.425 10.375-26.312 16.112-41.75 16.099-34.2875 0-62.1875-27.9-62.1875-62.212 0-34.3125 27.9-62.2125 62.1875-62.2125 15.438-.0125 30.325 5.725 41.75 16.1 2.325 2.1625 5.95 2.025 8.113-.2875 2.162-2.325 2.025-5.95-.288-8.1125-.037-.0375-.075-.075-.112-.1-13.538-12.2875-31.175-19.1-49.45-19.075-40.613 0-73.663 33.0625-73.663 73.6995 0 40.638 33.0375 73.688 73.65 73.688 18.288.012 35.925-6.788 49.463-19.075z" fill="#fff" fill-rule="evenodd"/></g></svg>

<svg width="250" height="250" viewBox="0 0 250 250" fill="none" xmlns="http://www.w3.org/2000/svg">
<g clip-path="url(#clip0_7_406)">
<path d="M125 250C194.036 250 250 194.036 250 125C250 55.9644 194.036 0 125 0C55.9644 0 0 55.9644 0 125C0 194.036 55.9644 250 125 250Z" fill="#4054A8"/>
<path fill-rule="evenodd" clip-rule="evenodd" d="M193.413 95.15C193.413 97.9 191.188 100.125 188.438 100.125C185.688 100.125 183.463 97.9 183.463 95.15C183.463 92.4 185.688 90.175 188.438 90.175C191.188 90.175 193.4 92.4 193.413 95.15ZM188.75 84.575C182.738 84.575 177.863 89.4375 177.863 95.45C177.863 101.462 182.725 106.337 188.738 106.337C194.75 106.337 199.625 101.475 199.625 95.4625V95.45C199.613 89.4625 194.75 84.5875 188.75 84.575ZM174.738 179.925C177.075 177.787 177.238 174.15 175.1 171.812C172.975 169.487 169.375 169.313 167.025 171.413C155.6 181.788 140.713 187.525 125.275 187.512C90.9875 187.512 63.0875 159.612 63.0875 125.3C63.0875 90.9875 90.9875 63.0875 125.275 63.0875C140.713 63.075 155.6 68.8125 167.025 79.1875C169.35 81.35 172.975 81.2125 175.138 78.9C177.3 76.575 177.163 72.95 174.85 70.7875C174.813 70.75 174.775 70.7125 174.738 70.6875C161.2 58.4 143.563 51.5875 125.288 51.6125C84.675 51.6125 51.625 84.675 51.625 125.312C51.625 165.95 84.6625 199 125.275 199C143.563 199.012 161.2 192.212 174.738 179.925Z" fill="white"/>
</g>
<defs>
<clipPath id="clip0_7_406">
<rect width="250" height="250" fill="white"/>
</clipPath>
</defs>
</svg>
